X:3999
T:Marian Gray. CJF.190
O:england
M:C
L:1/8
Q:90
C:"Companion to Alice Gray"
S: C.J.Fox MS, 1829/33, Beverley,E.Yorks.
R:Air
A:East Yorkshire
B:Kidson Coll.Mitchell Lib.M1805
N:"Companion to Alice Gray" is in the title line. It is not clear in the
N:MS whether the notes under "ad lib" are grace notes. The second bar
N:marked with a tilde (~) sounds better with the c notes sharpened. -
N:PJH.
K:D
D|F3GA3d|f3ed2B2|A2F2G2E2|"~"(F3G)A2zD|\
F3GA3d|f3e{e}d2{c}B2|
A2F2G2C2|D3{FE}Dz4|G3F E DzF|B2(AB)e2zB|\
c3c"~"B2(cd)|A2{c}B2A2HA2"ad lib."{^G=G}|
F3GA3d|(fe) (dc){c}hB2(cd)|(dF) F"~">G{B}A2{G/F/}E2|D3{F/E/}Dz4||


